!! 00000] TT[WS
!!!OTL: Hai tai
!!!ARE: Asia, China, Shanxi Shuoxian
!! Ethnic Group: Han
!! WII, 162 (1)
!!!SCT: J0645
!!!YEM: Copyright 1995, estate of Helmut Schaffrath.
**kern
*ICvox
*Ivox
*M2/4
*k[b-]
*F:
{8dd
8dd
16dd
16cc
16a
16cc
=1
8.dd
16cc
4dd
=2
16cc
16dd
8ff
16ff
16dd
16cc
16a
=3
8.g
16f
4g}
=4
{8cc
16cc
16a
8dd
16dd
16ff
=5
16a
16g
8f
8d
8c
=6
16f
8f
16a
8g
16f
16d
=7
2c}
==
!!!AGN: Xiaodiao. Aisu
!!!ONB: ESAC (Essen Associative Code) Database: CHINA
!!!AMT: simple duple
!!!AIN: vox
!!!EED: Helmut Schaffrath
!!!EEV: 1.0
*-
